X:1
T:Juárez, CMD
T:Juárez, CMD
T:Charles Edward Pollock, 1893
T:Public Domain Courtesy of the Cyber Hymnal™
C:Charles Edward Pollock, 1893
Z:Public Domain
Z:Courtesy of the Cyber Hymnal™
%%score ( 1 2 ) ( 3 4 )
L:1/8
Q:1/4=92
M:3/4
K:C
V:1 treble 
V:2 treble 
V:3 bass 
V:4 bass 
V:1
 [EG][CE] [DF] | [EG]3 [EG] [FA][EG] | [Ec]4 [Ec]2 | [DB]3 [DB] [FA][FB] | [Ec]3 [EG] [CE][DF] | %5
 [EG]3 [EG] [FA][EG] | [Ec]4 [Ec]2 | [DB]3 [Dc] [DB][DA] | !fermata![DG]3 [DG] [DG][EG] | %9
 [FG]3 [DG] [EG][FG] | G4 [EG]2 | [FA]3 [FA] [Ac][FA] | [EG]3 [EG] [CE][DF] | [EG]3 [EG] [FA][EG] | %14
 [Ec]4 [Ec]2 | [DB]3 [DB] [FA][FB] | !fermata![Ec]3 |] %17
V:2
 x3 | x6 | x6 | x6 | x6 | x6 | x6 | x6 | x6 | x6 | G4 x2 | x6 | x6 | x6 | x6 | x6 | x3 |] %17
V:3
 [C,C][C,G,] [C,G,] | [C,C]3 [C,C] [C,C][C,C] | [C,G,]4 [C,G,]2 | G,3 G, [G,,G,][G,,G,] | %4
 [C,G,]3 [C,C] [C,G,][C,G,] | [C,C]3 [C,C] [C,C][C,C] | [C,G,]4 [C,G,]2 | %7
 [D,G,]3 [D,A,] [D,G,][D,C] | !fermata![G,B,]3 [G,B,] [G,B,][G,C] | [G,D]3 [G,B,] [C,C][C,D] | %10
 [C,E]4 [C,C]2 | [F,C]3 [F,C] [F,C][F,C] | [C,C]3 [C,C] [C,G,][C,G,] | [C,C]3 [C,C] [C,C][C,C] | %14
 [C,G,]4 [C,G,]2 | G,3 G, [G,,G,][G,,G,] | !fermata![C,G,]3 |] %17
V:4
 x3 | x6 | x6 | G,3 G, x2 | x6 | x6 | x6 | x6 | x6 | x6 | x6 | x6 | x6 | x6 | x6 | G,3 G, x2 | %16
 x3 |] %17

